!! J.S. Bach, Kunst der Fuge; Fuga XI d minor; BWV 1080.
!! Encoded from "Bach; Die Kunst der Fuge", (Carl Czerny, ed.)
!! New York: C.F. Peters Co., pp.36-41; in four voices.
!! Performance duration: 7:33; performance tempo: 97.5 quarter-notes per minute.
!! (Davitt Moroney, harpsichord, "Bach, 'Die Kunst der Fuge'",
!! Harmonia Mundi No. HMC 1169.70)
**kern	**kern	**kern	**kern
*d:	*d:	*d:	*d:
*M2/2	*M2/2	*M2/2	*M2/2
*MM97.5	*MM97.5	*MM97.5	*MM97.5
=1	=1	=1	=1
1r	1r	4r	1r
.	.	4d	.
.	.	4a	.
.	.	4g	.
=2	=2	=2	=2
1r	1r	4r	1r
.	.	4f	.
.	.	4e	.
.	.	4d	.
=3	=3	=3	=3
1r	1r	4r	1r
.	.	4c#	.
.	.	4d	.
.	.	4e	.
=4	=4	=4	=4
1r	1r	4r	1r
.	.	8f	.
.	.	8g	.
.	.	4f	.
.	.	4em	.
=5	=5	=5	=5
1r	1r	4d	4r
.	.	8c	4a
.	.	8Bn	.
.	.	4c	4ee
.	.	4d	4dd
=6	=6	=6	=6
1r	1r	4e	4r
.	.	4A	4cc
.	.	8d	4bn
.	.	8e	.
.	.	4f	4a
=7	=7	=7	=7
1r	1r	4.e	4r
.	.	.	4g#
.	.	8d	.
.	.	8c	4a
.	.	8Bn	.
.	.	8A	4bn
.	.	8G#	.
=8	=8	=8	=8
1r	1r	8A	4r
.	.	8e	.
.	.	[4a	8cc
.	.	.	8dd
.	.	8a]	4cc
.	.	8d	.
.	.	[4g	4bnm
=9	=9	=9	=9
4r	1r	4g]	4a
4D	.	8f	4bn
.	.	8g	.
4A	.	4f	4cc
4G	.	4e	4cc#
=10	=10	=10	=10
4r	1r	8f	4dd
.	.	8g	.
4F	.	4a	8cc#
.	.	.	8bn
4E	.	8g	4cc#
.	.	8a	.
4D	.	[4b-	4dd
=11	=11	=11	=11
4r	1r	4b-]	4ee
4C#	.	8a	4gg
.	.	8b-	.
4D	.	4a	4ff
4E	.	[4g	4ee
=12	=12	=12	=12
4r	1r	4g]	4aa
8F	.	4f	4dd
8G	.	.	.
4F	.	4d	4bn
4Em	.	[4g	4cc#
=13	=13	=13	=13
2D	4r	4g]	2dd
.	4A	4f	.
4r	4e	8e	4ccn
.	.	4a	.
4E	4d	.	4bnm
.	.	8g#	.
=14	=14	=14	=14
4F	4r	4a	4a
8E	4c	8g#	4ee
8D	.	8f#	.
4E	4Bn	4g#	4dd
4Fn	4A	4a	[4cc
=15	=15	=15	=15
4BBn	4r	8d	4cc]
.	.	8e	.
8C	4G#	4f	4bn
8D	.	.	.
4C	4A	4e	4a
4BBn	4Bn	[4d	4g#m
=16	=16	=16	=16
4AA	4r	4d]	4a
4A	8c	4c	4e
.	8d	.	.
4D	4c	4f	4r
[4G	4Bnm	8e	4bn
.	.	8d	.
=17	=17	=17	=17
4G]	2A	4e	4cc#
8F	.	4f	2dd
8G	.	.	.
4F	4Bn	[2g	.
4E	4c#	.	4ee
=18	=18	=18	=18
4D	2d	4g]	4a
4r	.	8f	8aa
.	.	8e	8bb-
2r	4r	4f	4aa
.	8d	4b-	4ggm
.	8c#	.	.
=19	=19	=19	=19
4r	4d	4a	4ff
8D	4e	4g	4cc#
8E	.	.	.
4D	4f	4a	4dd
4Cn	4f#	[4ee-	4r
=20	=20	=20	=20
4BB-	4.g	4ee-]	1r
4B-	.	8dd	.
.	8f#	8ee	.
4En	4g	4dd	.
4F#	4a	[4cc	.
=21	=21	=21	=21
2.G	4d	4cc]	4r
.	8g	8b-	8een
.	8a	8cc	8ff
.	4g	4b-	4ee
4A	4f	4a	4dd
=22	=22	=22	=22
4B-	2e	4g	4cc#
8A	.	4c#	4ee
8G	.	.	.
8F	4d	4r	4aa
8E	.	.	.
8D	4E	[4a	4gg
8C#	.	.	.
=23	=23	=23	=23
4D	4F	8a]	4r
.	.	4dd	.
4r	4d	.	4ff
.	.	8ccn	.
4r	4g	8b-	4ee
.	.	4a	.
4D	4f	.	4dd
.	.	8b-	.
=24	=24	=24	=24
4A	8e	4c#	4r
.	4f	.	.
4G	.	4b-	4cc#
.	8e	.	.
4F	8A	4a	4dd
.	4d	.	.
4B-	.	4g	4ee
.	8c#	.	.
=25	=25	=25	=25
8A	4d	4f	4r
8G	.	.	.
4F	4a	2dd	8ff
.	.	.	8gg
4G	4b-	.	4ff
[4A	4e	8cc#	4ee
.	.	8ccn	.
=26	=26	=26	=26
8A]	2f	4bn	2.dd
8G#	.	.	.
8A	.	4b-	.
8G#	.	.	.
4A	8e	[2a	.
.	8f	.	.
4AA	[4gn	.	4cc#T
=27	=27	=27	=27
2D	4g]	2a]	2dd
.	4f	.	.
2r	2r	2A	2r
=28	=28	=28	=28
1r	1r	4B-	4r
.	.	4F	4d
.	.	4c	4e-
.	.	4c#	4en
=29	=29	=29	=29
1r	1r	4d	4f
.	.	4A	4f#
.	.	2e	4g
.	.	.	4g#
=30	=30	=30	=30
4r	1r	4f	8a
.	.	.	8bn
2A	.	4e	8cc
.	.	.	8a
.	.	8d	4.ff
.	.	8e	.
4G#	.	4d	.
.	.	.	16ee
.	.	.	16dd
=31	=31	=31	=31
4Gn	1r	4.a	4cc#
4F#	.	.	4dd
.	.	8a	.
4Fn	.	8bn	[2gg
.	.	8a	.
4ET	.	8b	.
.	.	8cc#	.
=32	=32	=32	=32
2D	1r	4dd	4gg]
.	.	4a	8ff
.	.	.	8ee
2r	.	4dd	8ff
.	.	.	8gg
.	.	4cc#	8ff
.	.	.	8ee
=33	=33	=33	=33
1r	1r	4ccn	4dd
.	.	4bn	8gg
.	.	.	8ff#
.	.	4b-	8gg
.	.	.	8aa
.	.	4a	8gg
.	.	.	8ffn
=34	=34	=34	=34
1r	2r	8g#	4ee
.	.	8cc	.
.	.	8bn	4ff#
.	.	8a	.
.	2E	8b	4ggn
.	.	8dd	.
.	.	8cc	4gg#
.	.	8b	.
=35	=35	=35	=35
4r	4F	2a	8aa
.	.	.	8ggn
4AA	4C	.	8ff
.	.	.	8ee
4BB-	4G	4r	8dd
.	.	.	8cc#
4BBn	4G#	8r	[4dd
.	.	8f	.
=36	=36	=36	=36
4C	4A	4e	8dd]
.	.	.	8ccn
4C#	4E	4g	8b-
.	.	.	8a
4D	2Bn	4f	8g#
.	.	.	8a
4D#	.	4f#	8g#
.	.	.	8a
=37	=37	=37	=37
2E	4c	8e	4g#
.	.	8f#	.
.	4Bnm	8g#	2ee
.	.	8e	.
2Fn	8A	2a	.
.	8B	.	.
.	4A	.	4dd#
=38	=38	=38	=38
4E	4e	4g#	4ddn
8r	4e	4gn	4cc#
8E	.	.	.
8F#	4d#	4a	4ccn
8E	.	.	.
8F#	4dn	[4e	[4bn
8G#	.	.	.
=39	=39	=39	=39
4A	4c#	4e]	8b]
.	.	.	8a
4r	2fn	4a	8r
.	.	.	8aa
2r	.	4g#	8bn
.	.	.	8a
.	4eT	[4gn	8b
.	.	.	8cc#
=40	=40	=40	=40
4r	4d	8g]	4dd
.	.	8f	.
4D	4r	2b-	8r
.	.	.	8dd
4C#	2r	.	8ee
.	.	.	8dd
4Cn	.	4a	8ee
.	.	.	8ff#
=41	=41	=41	=41
4BBn	4r	4dd	8gg
.	.	.	8g
2E	8r	8cc	4gg
.	8G	8bn	.
.	8A	4cc	4ff#
.	8G	.	.
4D	8A	4dd	[4ffn
.	8Bn	.	.
=42	=42	=42	=42
4C	4c	4g	8ff]
.	.	.	8dd
8r	4r	4cc	4ee
8C	.	.	.
8D	2r	4bn	4ff
8C	.	.	.
8D	.	[4b-	4gg
8E	.	.	.
=43	=43	=43	=43
8F	1r	8b-]	4cc
8E	.	8a	.
8F	.	[4dd	4ff
8G	.	.	.
4A	.	16dd]	4ee
.	.	16cc	.
.	.	16b-	.
.	.	16a	.
4AA	.	8g	[4ee-
.	.	8f#	.
=44	=44	=44	=44
4BB-	4r	4g	8ee-]
.	.	.	8dd
4FFn	4D	4a-	8cc
.	.	.	8bn
4C	4E-	4.g	8cc
.	.	.	8b-
4C#	4En	.	[4an
.	.	8g	.
=45	=45	=45	=45
4D	4F	4f	8a]
.	.	.	8bn
4AA	4F#	8e	[4ccn
.	.	8d#	.
2E	4G	4e	8cc]
.	.	.	8b
.	4G#	4r	8cc#
.	.	.	[8ee
=46	=46	=46	=46
4Fn	4A	4r	8ee]
.	.	.	4dd
4Em	8r	4g	.
.	8A	.	8cc#
8D	4B-	4f#	8dd
8E	.	.	4a
4D	4Bn	4fn	.
.	.	.	8g#
=47	=47	=47	=47
2A	4c	4.e	2a
.	4c#	.	.
.	.	8e	.
4r	8d	4f	4r
.	8e-	.	.
8r	8d	4f#	8r
8A	8cn	.	8a
=48	=48	=48	=48
8G	2d	[2g	4b-
8A	.	.	.
8G	.	.	4bn
8F	.	.	.
8E	4G	8g]	[2cc
8D	.	8f	.
4C	8c	4e	.
.	8B-	.	.
=49	=49	=49	=49
4D	8A	4f	8cc]
.	8F	.	8dd
4E	[4c	2g	8cc
.	.	.	8b-
4F	8c]	.	4a
.	8e	.	.
8r	8d	4f#	[4dd
8D	8c	.	.
=50	=50	=50	=50
4E	8Bn	4g	8dd]
.	8G	.	8ee
4F#	[4d	2a	8dd
.	.	.	8cc
4G	8d]	.	4bn
.	8fn	.	.
8r	8e	4g#	[4ee
8E	8d	.	.
=51	=51	=51	=51
4F#	4c	4a	8ee]
.	.	.	8aa
4G#	4Bn	[4bn	8ee
.	.	.	8dd
4A	16A	8b]	4cc
.	16B	.	.
.	16c	16e	.
.	16d	16fn	.
8r	4e	16gn	4cc#
.	.	16a	.
8Gn	.	8b-	.
=52	=52	=52	=52
8F	4f	4a	4dd
8G	.	.	.
8F	4c#	4gm	4ee
8E	.	.	.
8D	8d	4f	4ff
8AA	8r	.	.
8D	4r	8r	4ff#
8Cn	.	8dd	.
=53	=53	=53	=53
8BB-	1r	8ee	4gg
8C	.	8dd	.
8BB-	.	8ee	4aa
8AA	.	8ff#	.
8GG	.	8gg	[2bb-
8D	.	8ffn	.
[4G	.	8ee-	.
.	.	8dd	.
=54	=54	=54	=54
4G]	4r	4cc#	8bb-]
.	.	.	8ee
4F#	8r	2dd	4aa
.	8A	.	.
4Fn	8Bn	.	4gg#
.	8A	.	.
4E	8B	4ee	4ggn
.	8c#	.	.
=55	=55	=55	=55
4r	8d	4a	4ff#
.	8A	.	.
4D	4d	8r	4ffn
.	.	[8b-	.
4C#	2r	8b-]	4ee
.	.	8a	.
4Cn	.	8g	4ee-
.	.	8f#	.
=56	=56	=56	=56
4BBn	8r	4g	4.dd
.	8C#	.	.
4BB-	8D	4g#	.
.	8E	.	8cc#
4AA	8F	4a	4.dd
.	8E	.	.
4GG#	4F	4bnm	.
.	.	.	8ee
=57	=57	=57	=57
4AA	4E	4a	8dd
.	.	.	8cc#
4r	4A	8r	4ff
.	.	8c#	.
4r	4G#	8d	4bn
.	.	8c#	.
8r	4Gn	8d	4b-
8C#	.	8e	.
=58	=58	=58	=58
4D	4F#	4A	4a
4r	4Fn	8r	4dd
.	.	8A	.
4r	4E	8B-	2gT
.	.	8A	.
8r	4E-	8B-	.
8AA	.	8c	.
=59	=59	=59	=59
8BB-	4D	8d	4f
8AA	.	8B-	.
2GG	4r	8e-	4g
.	.	8d	.
.	2r	8c	8a
.	.	8e-	8g
4FF#	.	8d	4a
.	.	[8c	.
=60	=60	=60	=60
4FFn	4r	8c]	4d
.	.	8Bn	.
4EE	8r	2c	4g
.	8G	.	.
4EE-	8A	.	4f#
.	8G	.	.
4DD	8A	4d	[4fn
.	8Bn	.	.
=61	=61	=61	=61
4CC	8c	4G	4f]
.	8C	.	.
8r	4c	4r	4e
8C	.	.	.
8D	4Bn	2r	4f
8C	.	.	.
8D	[4B-	.	4g
8E	.	.	.
=62	=62	=62	=62
8F	4B-]	4r	4c
8C	.	.	.
2F	4A	4a	8r
.	.	.	8cc
.	8Bn	4g#	8dd
.	8A	.	8cc
4E	8B	[4gn	8dd
.	8c#	.	8ee
=63	=63	=63	=63
4D	8d	8g]	4a
.	8A	8f	.
4r	2d	8r	4ff
.	.	8f	.
2r	.	8g	4ee
.	.	8f	.
.	4cnm	8g	[4ee-
.	.	8a	.
=64	=64	=64	=64
4r	4B-	8b-	8ee-]
.	.	8f	8dd
4B-	4g	8b-	8r
.	.	8dd	8dd
4A	4f#	8cc	8ee-
.	.	8bn	8dd
4A-	[4fn	8cc	8ee-
.	.	8dd	8ff
=65	=65	=65	=65
4G	4f]	8bn	4gg
.	.	8dd	.
4r	4en	4g	8r
.	.	.	8gg
2r	4d#	4f#	8aa
.	.	.	8gg#
.	[4dn	4fn	8aa
.	.	.	8bbn
=66	=66	=66	=66
4r	4d]	4e	8gg#
.	.	.	8bbn
8r	4c#	8r	4ee
8E	.	8g#	.
8F#	4cn	8a	4dd#
8E	.	8g#	.
8F#	[4Bn	8a	4ddn
8G#	.	8bn	.
=67	=67	=67	=67
8A	4B]	4.e	4cc#
8E	.	.	.
4.A	4A	.	4ffn
.	.	8d	.
.	4r	4c#	4ee
8G#	.	.	.
4A	8r	4cn	4dd#
.	8f#	.	.
=68	=68	=68	=68
4G#	8e	8Bn	4ee
.	8d	8bn	.
4c	8c	8a	4ee
.	8Bn	8g#	.
4F#	4c	8a	4dd#
.	.	8cc	.
4Fn	4d	8b	4ddn
.	.	8a	.
=69	=69	=69	=69
4E	8e	4g#	4cc#
.	8d#	.	.
4A	8e	4gn	4ccn
.	8c	.	.
2DT	8dn	4f#	4bn
.	8c#	.	.
.	8d	4fn	4b-
.	8G#	.	.
=70	=70	=70	=70
4C	8A	4e	2.a
.	8Bn	.	.
4D	4c	4f	.
8E	2B	[2e	.
8D	.	.	.
4E	.	.	4g#T
=71	=71	=71	=71
4AA	4c	4e]	4a
4r	4e	4r	4r
4r	4A	4r	4r
4G#	4Bn	4f	4dd
=72	=72	=72	=72
2A	4r	4f	4dd
.	4c	4e	4cc
4r	4d	4r	4r
4C#	4e	4g	4b-
=73	=73	=73	=73
2D	4r	4g	4b-
.	4f	4f	8a
.	.	.	8bn
4r	4e	4r	4cc
4E	4d	[4g#	8b
.	.	.	8cc
=74	=74	=74	=74
2F	4r	4g]	4dd
.	8c	4a	8cc
.	8Bn	.	8dd
4r	4c	4r	4ee
4BBn	4d	4a	[4dd
=75	=75	=75	=75
8C	2e	4g#	4dd]
8BBn	.	.	.
8C	.	2a	4cc
8D	.	.	.
8E	4r	.	4bn
8EE	.	.	.
4E	4B-	4gn	4cc#
=76	=76	=76	=76
4F	4A	8f	4dd
.	.	8e	.
4F#	8d	2d	4aa
.	8c	.	.
4G	4Bn	.	4dd
4C#	4B-	4g	4ee
=77	=77	=77	=77
4D	4A	8f	4r
.	.	8a	.
4r	4D	8b-	4ff
.	.	8dd	.
2r	8E	4cc#	4gg
.	8D	.	.
.	8E	4ccn	4aa
.	8F#	.	.
=78	=78	=78	=78
4r	4G	8bn	4r
.	.	8cc#	.
4D	8F#	4dd	4bb-
.	8E	.	.
4E-	8F#	4ccn	4aa
.	8A	.	.
4En	8c#	4b-m	4gg
.	[8e	.	.
=79	=79	=79	=79
4Fn	8e]	4a	4r
.	4d	.	.
4B-	.	4r	8ff
.	8c#	.	8ee
4A	8d	2r	4ff
.	4f	.	.
4G	.	.	4gg
.	8e	.	.
=80	=80	=80	=80
4d	8f	4r	4.aa
.	8e	.	.
4D	4d	4bn	.
.	.	.	8gg
4AA	4r	8cc	4ff#
.	.	16dd	.
.	.	16ee-	.
4BBn	4g#	[4dd	4ffn
=81	=81	=81	=81
4r	4a	8dd]	4ee
.	.	16cc	.
.	.	16b-	.
4C	[4c	8a	4ee-
.	.	8g	.
4D	8c]	4f#	4dd
.	8B-	.	.
4En	8A	4g	4cc#
.	8G	.	.
=82	=82	=82	=82
4r	2d	8f#	4ccn
.	.	4a	.
4Fn	.	.	4bn
.	.	4g	.
4E	4e	.	4cc#
.	.	4b-	.
4D	4fn	.	4dd
.	.	8a	.
=83	=83	=83	=83
4r	4g	8b-	[1ee
.	.	4a	.
8C#	4e	.	.
8AA	.	8b-	.
4BBn	4r	8a	.
.	.	8g	.
4C#	8A	8f	.
.	8B-	8e	.
=84	=84	=84	=84
4D	4.A	4f	8ee]
.	.	.	8dd
4AA	.	4a	8cc#
.	8G	.	8ee
4BB-	8F	4d	8dd
.	8D	.	8ccn
4GG	[4G	4e	8b-
.	.	.	8dd
=85	=85	=85	=85
4AA	4G]	4r	8cc
.	.	.	8b-
4D	[4F	4f	8a
.	.	.	8cc
[2GG	8F]	4G	8b-
.	8D	.	4gg
.	4E-m	4a	.
.	.	.	8ff#
=86	=86	=86	=86
2GG]	4D	4r	8gg
.	.	.	8ffn
.	8G	4b-	8een
.	8F	.	8dd
[2AA	8En	4a	8cc
.	8D	.	8dd
.	8E	4g	8b-
.	8C	.	8cc
=87	=87	=87	=87
4AA]	4F	4r	[2a
8BBn	4r	8f	.
8C#	.	8e	.
4D	2r	4f	8a]
.	.	.	8b-
4BB-	.	4g	8a
.	.	.	8b-
=88	=88	=88	=88
4F	4r	8a	4cc
.	.	8b-	.
8AA	4a	2cc	2ff
8BB-	.	.	.
4C	8g	.	.
.	8f	.	.
4CC	4g	[4b-	4eeT
=89	=89	=89	=89
2FF	2f	4b-]	2ff
.	.	4a	.
2AA	4r	2r	2r
.	[4E-	.	.
=90	=90	=90	=90
4BB-	8E-]	2r	1r
.	8D	.	.
4FF	8F	.	.
.	8F	.	.
4C	8F	4r	.
.	8En	.	.
4C#	8G	[4B-	.
.	8G	.	.
=91	=91	=91	=91
4D	8G	8B-]	1r
.	8F#	8A	.
4AA	8A	8c	.
.	8A	8c	.
2E	8A	8c	.
.	8G#	8Bn	.
.	8B-	8d	.
.	8B-	8d	.
=92	=92	=92	=92
4Fn	8B-	8d	1r
.	8A	8c#	.
4E	8Bn	8d	.
.	8c#	8e	.
8D	8d	8f	.
8E	8G#	8e	.
4D	8A	8f	.
.	8B	8gn	.
=93	=93	=93	=93
8A	4.cn	8e	2r
8E	.	8g	.
[4A	.	8f	.
.	8c	8e	.
4A]	8B-	4d	4r
.	8A	.	.
4G	8B-	4e	[4b-
.	8c	.	.
=94	=94	=94	=94
4.F	4d	4f	8b-]
.	.	.	8a
.	4A	4c	8cc
16G	.	.	8cc
16F	.	.	.
8E	[2e	4g	8cc
8D	.	.	8bn
4E	.	4g#	8dd
.	.	.	8dd
=95	=95	=95	=95
4AA	4e]	4a	8dd
.	.	.	8cc#
2A	8d	4e	8ee
.	8c#	.	8ee
.	4f	2bn	8ee
.	.	.	8dd
4G#	4r	.	8ff
.	.	.	8ff
=96	=96	=96	=96
2A	4r	4ccn	8ff
.	.	.	8ee
.	4d	4bn	8ff#
.	.	.	8gg#
4r	4c#	8a	8aa
.	.	8b-	8gg#
4D#	[4cn	4a	[4aa
=97	=97	=97	=97
2E	4c]	2ee	8aa]
.	.	.	8ff#
.	4Bn	.	8ggn
.	.	.	8gg
4A	4c	4r	8gg
.	.	.	8ee
4Bn	[4g	[4dd	8ffn
.	.	.	8ff
=98	=98	=98	=98
4c	2g]	8dd]	2ee
.	.	8bn	.
4E	.	8cc	.
.	.	8cc	.
4F#	4r	8cc	4dd#
.	.	8a	.
4G#	[4fn	8b	[4ddn
.	.	8b	.
=99	=99	=99	=99
[1A	8f]	8bn	8dd]
.	8d#	8g#	8bn
.	8e	8a	8cc
.	8e	8cc	8ee
.	8e	4f#	4a
.	8c#	.	.
.	8dn	4fn	[4b
.	8d	.	.
=100	=100	=100	=100
4A]	8d	2e	8bn]
.	8Bn	.	8g#
[4A	4cn	.	8a
.	.	.	8cc
8A]	4d	4f#	8bn
8F#	.	.	8dd
8Gn	4e	4b-	8cc#
8G	.	.	8ee
=101	=101	=101	=101
8G	4.A	4a	8dd
8E	.	.	8cc#
8Fn	.	4d	2dd
8F	8A	.	.
8F	4Bn	4a	.
8D	.	.	.
8E	4c#	4g	12gg
.	.	.	12ff
8E	.	.	.
.	.	.	12ee
=102	=102	=102	=102
8E	4d	4r	4ff
8C#	.	.	.
8D	4r	4f	8a
8E	.	.	8g
8F	4r	4e	4a
8E	.	.	.
8F	4g	4d	[4b-
8G	.	.	.
=103	=103	=103	=103
4C#	4e	4r	8b-]
.	.	.	8g
4r	4G	4c#	8a
.	.	.	8a
4r	4F	4d	8a
.	.	.	8f
[4BB-	4C#	4e	8g
.	.	.	8g
=104	=104	=104	=104
8BB-]	4D	4r	8f
8GG#	.	.	16e
.	.	.	16d
8AA	4A	8f	4dd
8AA	.	8gn	.
8AA	4d	4f	4bn
8FF	.	.	.
8GGn	[4a	4e	4cc#
8GG	.	.	.
=105	=105	=105	=105
8GG	4a]	4d	4dd
8EE	.	.	.
8FF#	4r	[4a	4ccn
8FF#	.	.	.
4GG	2d	8a]	4bn
.	.	8f#	.
4EE	.	8g	[4b-
.	.	8g	.
=106	=106	=106	=106
4AA	4c#	8g	8b-]
.	.	8e	8a
4A	4f	8fn	[4dd
.	.	8f	.
4G#	4Bn	8f	8dd]
.	.	8d	8bn
4Gn	4B-	8e	8cc#
.	.	8e	8ee
=107	=107	=107	=107
4F#	4A	8e	4aa
.	.	8c#	.
4Fn	4d	4d	8a
.	.	.	8dd
4E	2G	4r	8dd
.	.	.	8bn
4E-	.	4cn	8cc
.	.	.	8cc
=108	=108	=108	=108
4D	4F	4f	8cc
.	.	.	8a
4D-	4G	4e	8b-
.	.	.	8b-
4C	8A	4e-	8cc
.	8G	.	8dd
4F	4A	8r	[4ee-
.	.	[8cc	.
=109	=109	=109	=109
2BB-	4D	8cc]	4ee-]
.	.	8a	.
.	4F	8b-	4dd
.	.	8b-	.
2r	4.cT	8b-	4een
.	.	8g	.
.	.	8a-	[4ff
.	16d	8a-	.
.	16c	.	.
=110	=110	=110	=110
1r	4Bn	4.g	8ff]
.	.	.	8dd
.	[4c	.	8ee-
.	.	8an	8ee-
.	8c]	4.f#	8ee-
.	8A	.	8cc
.	8B-	.	8dd
.	8B-	8g	8dd
=111	=111	=111	=111
2r	8B-	4c	4een
.	8G	.	.
.	8A	[4cc	4ff#
.	8A	.	.
4r	4G	8cc]	4gg
.	.	8a	.
[4GG	4g	8b-	4ee-
.	.	8b-	.
=112	=112	=112	=112
8GG]	4en	2a	4cc#
8EE	.	.	.
8FF	2d	.	4dd
8FF	.	.	.
8FF	.	2gT	4bn
8DD	.	.	.
8EE-	[4c	.	4ccn
8EE-	.	.	.
=113	=113	=113	=113
8EE-	4c]	[2f	4a
8CC	.	.	.
8DD	8B-	.	2b-
8EE-	8c	.	.
8FF	4d	8f]	.
8EE-	.	8g	.
4FF	4c	8f	4a
.	.	[8e-	.
=114	=114	=114	=114
4BB-	4.B-	8e-]	4b-
.	.	8d	.
4D	.	8f	4f
.	8A	8f	.
2E-	8G	8f	4cc
.	8B-	8e-	.
.	8A	8g	4cc#
.	8G	8g	.
=115	=115	=115	=115
4D	4A	8g	4dd
.	.	8f#	.
4F#	8d	8a	4a
.	8c	8a	.
4G	8Bn	8a	2eenT
.	8c#	8g	.
4G#	[4d	8bn	.
.	.	8b	.
=116	=116	=116	=116
4A	8d]	4a	4ff
.	8c#	.	.
8r	[4g	8bn	4eeT
8A	.	8cc#	.
4B-	8g]	4dd	8dd
.	8e	.	8ee
4Bn	8f	4r	4dd
.	8f	.	.
=117	=117	=117	=117
4c	8f	2r	4aa
.	8d#	.	.
4c#	8ee	.	[4gg
.	8ee	.	.
4d	8e	4r	8gg]
.	8A	.	8ee
4D	8dn	[4dd	8ff
.	8cn	.	8ff
=118	=118	=118	=118
4G	4Bn	8dd]	8ff
.	.	8bn	8dd#
4C	4B-	8cc	8ee
.	.	8cc	8ee
4F	4A	8cc	8ee
.	.	8a	8cc#
4BBn	8r	8bn	8ddn
.	8A	8b	8dd
=119	=119	=119	=119
4E	4G#	8bn	8dd
.	.	8g#	8bn
8r	4Gn	8a	8ccn
8E	.	8a	8cc
4D#	4F#	8a	8cc
.	.	8f#	8a
4Dn	4Fn	8g#	8b
.	.	8g#	8b
=120	=120	=120	=120
4C#	2.E	8g#	8bn
.	.	16a	8ee
.	.	16gn	.
4Cn	.	8f#	[4a
.	.	8e	.
8BBn	.	[2f#	8a]
8AA	.	.	8cc
4BB	4D#T	.	8b
.	.	.	8a
=121	=121	=121	=121
4EE	4E	8f]	4g#
.	.	8e	.
4r	2e	8g#	4bn
.	.	8g#	.
2r	.	8g#	4a
.	.	8f#	.
.	4d#m	8a	4cc
.	.	8a	.
=122	=122	=122	=122
4r	4e	8a	4bn
.	.	8g#	.
4E	4G#	8bn	[4dd
.	.	8b	.
4F	4A	8b	8dd]
.	.	8a	8cc
4F#	4r	8cc	8ee-
.	.	8cc	8ee-
=123	=123	=123	=123
4G	2r	8cc	8ee-
.	.	8bn	8dd
4G#	.	8dd	8ffn
.	.	8dd	8ffn
4A	4r	8dd	8ff
.	.	8cc#	8een
4r	4e	8ee	8gg
.	.	8ee	8gg
=124	=124	=124	=124
4r	4f	8ee	8gg
.	.	8dd	8ff
4A	4f#	8ee-	8ccc
.	.	8ee-	8ccc
4B-	4g	8ee-	8ccc
.	.	8dd	8bb-
4Bn	4g#	8dd	8ffn
.	.	8dd	8ff
=125	=125	=125	=125
4c	[2a	8dd	8ff
.	.	8cc	8ee
4c#	.	8gn	8ee
.	.	8g	8ee
[2d	8a]	4f	8ee
.	8f	.	8dd
.	8g	8dd	8bb-
.	8g	8dd	8bb-
=126	=126	=126	=126
4d]	8g	8b-	4cc#
.	8e	8g	.
8d	8f	4a	4dd
8d	8f	.	.
8d	8f	4g#	4bn
8Bn	8d	.	.
8cn	8e	8a	4ee
8c	8e	8gn	.
=127	=127	=127	=127
8c	8e	4f#	4a
8A	8c	.	.
8Bn	8d	[4g#	8dd
8B	8d	.	8ee
8B	[2d	8g#]	2ffn
8G#	.	8bn	.
8A	.	8a	.
8A	.	8cc	.
=128	=128	=128	=128
4G#	4d]	4bn	8ff
.	.	.	4ee
4A	4c	2a	.
.	.	.	8dd
4D	4f	.	8cc
.	.	.	8.bn
4E	4Bn	4g#	.
.	.	.	16a
.	.	.	8b
=129	=129	=129	=129
[1AA	8c	4a	2a
.	8d	.	.
.	8e	4gn	.
.	8e	.	.
.	8e	4f#	4r
.	8c#	.	.
.	8d	4fn	4g#T
.	8d	.	.
=130	=130	=130	=130
4AA]	8d	4.e	4.a
.	8Bn	.	.
[4A	8cn	.	.
.	8c	8e	8a
8A]	8d	8f	8bn
8F	8f	8a	8dd
8G	8B-	8e	8cc#
8G	8B-	8e	8cc#
=131	=131	=131	=131
8G	8B-	8e	8cc#
8E	8G	8g	8ee
8F	8A	8f	8dd
8F	8A	8f	8dd
8F	8A	8f	8dd
8D	8F	8a	8ff
8E	8G	8g	8ee
8E	8G	8g	8ee
=132	=132	=132	=132
8E	8G	8g	8ee
8C#	8E	8b-	8gg
4D	4F	8a	8ff
.	.	8d	8ff
4A	4r	8dd	8ff
.	.	8bn	8dd
4G	4B-	8cc#	8ee
.	.	8cc#	8ee
=133	=133	=133	=133
4r	2A	8cc#	8ee
.	.	8e	8cc#
4F	.	8f	8dd
.	.	8f	8dd
4E	[2g	[2b-	8dd
.	.	.	8cc#
4D	.	.	8ee
.	.	.	8dd
=134	=134	=134	=134
4r	4G]	4.b-]	8ff
.	.	.	8ee
4C#	4E	.	[4gg
.	.	8b-	.
4D	4F	4a	8gg]
.	.	.	8ff
4E	4G	[4g	8ee
.	.	.	8dd
=135	=135	=135	=135
4r	4.A	4g]	8cc#
.	.	.	8a
8F	.	8f	2dd
8G	8B-	8d	.
4F	8B-	[2g	.
.	8A	.	.
4E	8A	.	4cc#T
.	8G	.	.
=136	=136	=136	=136
8D	2A	4g]	8dd
8C#	.	.	8a
8D	.	8f	8dd
8E	.	8g	8dd
4F	4r	4f	8dd
.	.	.	8bn
4F#	4A	[4e-	8ccn
.	.	.	8cc
=137	=137	=137	=137
4G	4B-	8e-]	4b-
.	.	8d	.
4D	4Fn	8f	[4a
.	.	8f	.
[2A	4c	8f	8a]
.	.	8en	8g
.	4c#	8g	8b-
.	.	8g	8b-
=138	=138	=138	=138
1A_	4d	8g	8b-
.	.	8f#	8a
.	4A	8a	8cc
.	.	8a	8cc
.	2eT	8a	8cc
.	.	8g#	8bn
.	.	8bn	8dd
.	.	8b	8dd
=139	=139	=139	=139
1A_	4f	8bn	8dd
.	.	8a	8cc#
.	4em	8b	8dd
.	.	8cc#	8ee
.	8d	8dd	8ff
.	8e	8cc#	8ee
.	4d	8dd	8ff
.	.	8ee	8gg
=140	=140	=140	=140
4A]	8a	4cc#	4ee
.	8e	.	.
4r	8a	4cc	4ff
.	8a	.	.
2r	8a	4bn	4dd
.	8f#	.	.
.	8g	4b-	4ee
.	8g	.	.
=141	=141	=141	=141
4r	8g	4a	4cc#m
.	8e	.	.
[4D	8f	4b-	4dd
.	8f	.	.
8D]	8f	4bn	2r
8F	8a-	.	.
8E	8g	4ccn	.
8E	8g	.	.
=142	=142	=142	=142
8E	8g	4cc#	4r
8G	8b-	.	.
8F#	4an	4dd	[4aan
8F#	.	.	.
8F#	2cT	[2ee-	8aa]
8A	.	.	8ff#
8G	.	.	8gg
8G	.	.	8gg
=143	=143	=143	=143
8G	4B-	8ee-]	8gg
8B-	.	8cc#	8een
8A	4r	8dd	8ff
8A	.	8dd	8ff
[2A	4r	8dd	8ff
.	.	8bn	8dd#
.	4g	8ccn	8ee
.	.	8cc	8ee
=144	=144	=144	=144
8A]	4f#	4.bn	4dd#
8F#	.	.	.
8G	2e	.	8ee
8G	.	8b-	8ddn
8G	.	4.a	4cc#
8E	.	.	.
8Fn	[4d	.	8dd
8F	.	8a-	8ccn
=145	=145	=145	=145
8F	4d]	4.g	4bn
8D	.	.	.
8E-	4r	.	2cc
8F	.	8f	.
4G	2r	8e-	.
.	.	8d	.
4GG	.	8f	4b
.	.	8f	.
=146	=146	=146	=146
2C	4r	8f	4cc
.	.	8en	.
.	4E	8g	4g
.	.	8g	.
4r	4Bn	8g	4dd
.	.	8f#	.
4Fn	4A	8a	4dd#
.	.	8a	.
=147	=147	=147	=147
2E	4r	8a	4ee
.	.	8g#	.
.	4Gn	8bn	4bn
.	.	8b	.
4D#	4F#	8b	2ff#
.	.	8a	.
4A	4E	8cc	.
.	.	8cc	.
=148	=148	=148	=148
4G	4r	8cc	4gg
.	.	8bn	.
2C	4D#	8a	4ff#
.	.	8b	.
.	4E	4g	8ee
.	.	.	8ff#
8BBn	4F#	4cc	4ee
8AA	.	.	.
=149	=149	=149	=149
4GG	4r	4bn	8bbn
.	.	.	8dd#
4C	8G	4r	[4ee
.	8A	.	.
4AA	4G	2r	8ee]
.	.	.	8cc#
4BBn	4F#T	.	8ddn
.	.	.	8dd
=150	=150	=150	=150
4GG#	2E	4r	8dd
.	.	.	8bn
4AA	.	[4a	8ccn
.	.	.	8cc
4EE	4r	8a]	8cc
.	.	8f#	8a
4r	[4e	8g	8b-
.	.	8g	8b-
=151	=151	=151	=151
2r	8e]	4f#	4a
.	8c#	.	.
.	8d	4fn	4b-
.	8d	.	.
4r	8d	4e	4g#
.	8Bn	.	.
[4A	8cn	4r	4a
.	8c	.	.
=152	=152	=152	=152
8A]	4Bn	2r	4dd
8F#	.	.	.
8G	4B-	.	4ee
8G	.	.	.
8G	4.A	4r	4cc#
8E	.	.	.
4F#	.	[4a	4dd
.	8cn	.	.
=153	=153	=153	=153
4G	8B-	8a]	8dd
.	8A	8fn	8ffn
4C#	4B-	8g	8ee
.	.	8g	8ee
4r	4r	8g	8ee
.	.	8e	8gg
4D	8A	8f	8ff
.	8Bn	8f	8ff
=154	=154	=154	=154
4A	8c#	8f	8ff
.	8Bn	8d	8aa
4B-	4c#	8e	8gg
.	.	8e	8gg
4r	4r	8e	8gg
.	.	8c#	8bb-
4F#	4cn	[4d	8aa
.	.	.	8aa
=155	=155	=155	=155
4Fn	8Bn	8d]	4gg
.	8d	8Bn	.
4E	8c	8c	[4g
.	8c	8e	.
4r	[2c	8e	8g]
.	.	8g	8b-
4E-	.	8f#	8a
.	.	8f#	8a
=156	=156	=156	=156
4D	8c]	8f#	8a
.	8A	8d	8f#
4C#	8B-	[4e	8g
.	8B-	.	8g
4r	8B-	8e]	8g
.	8G	8g	8b-
4Cn	8A	8f#	[4ee-
.	8A	8f#	.
=157	=157	=157	=157
4BBn	8A	8f#	8ee-]
.	8F#	8a	8dd
2BB-	8G	8g	8gg
.	8G	8g	8ffn
.	8G	8g	8een
.	8E	8a	8dd
8AA	8Fn	[4b-	8cc#
8GG#	8F	.	8dd
=158	=158	=158	=158
4AA	8E	4b-]	4cc#
.	8A	.	.
8r	4c#	4e	4aa
8G	.	.	.
8F	4r	4a	4dd
8E	.	.	.
8D	4b-	4g	4ee
8C#	.	.	.
=159	=159	=159	=159
4D	8b-	4r	4r
.	8a	.	.
8r	[4dd	4f	4ff
8D	.	.	.
4E	8dd]	4e	4gg
.	8ccn	.	.
4F#	8b-	4d	4aa
.	8a	.	.
=160	=160	=160	=160
8G	4b-	4r	4r
8Fn	.	.	.
8E	4r	4c#	4bb-
8G	.	.	.
[2F	8r	4d	4aa
.	8A	.	.
.	8c#	4e	4gg
.	8A	.	.
=161	=161	=161	=161
8F]	4.d	4r	4r
8F	.	.	.
[4B-	.	8f	8ff
.	8c#	8g	8ee
8B-]	4.d	4f	4ff
8A	.	.	.
4G	.	4e-	4gg
.	[8cn	.	.
=162	=162	=162	=162
4.F#	8c]	4d	4aa
.	8A	.	.
.	8B-	4f#	[4dd
8D	8B-	.	.
4E-	[2B-	[2g	8dd]
.	.	.	8b-
4En	.	.	8cc
.	.	.	8cc
=163	=163	=163	=163
4Fn	8B-]	4g]	[2cc
.	8G	.	.
8r	8A-	8fn	.
8C	8A-	8e	.
4D-	[2A-	[2f	8cc]
.	.	.	8a-
4Dn	.	.	8b-
.	.	.	8b-
=164	=164	=164	=164
4E-	8A-]	8f]	2b-
.	8F	8d	.
4B-	4G	8e-	.
.	.	8b-	.
4En	4d	8b-	4r
.	.	8g	.
4F#	4c	8a	[4dd
.	.	8a	.
=165	=165	=165	=165
4r	4r	4g	8dd]
.	.	.	8ffn
4G	4B-	[4cc	8een
.	.	.	8ee
4An	4An	8cc]	[2ff
.	.	8bn	.
4Bn	4G	8dd	.
.	.	8dd	.
=166	=166	=166	=166
4r	4r	4cc	8ff]
.	.	.	8dd
4c	4F#	4r	8ee-
.	.	.	8ee-
4B-	4G	8r	4.ee-
.	.	8g	.
4A	4A	[4f#	.
.	.	.	8ee-
=167	=167	=167	=167
4r	4r	4f#]	8dd
.	.	.	8cc
8G	8B-	4g	8b-
8Fn	8c	.	8a
4G	4B-	8r	4g
.	.	8e-	.
4AT	4A	8d	[4fn
.	.	8c	.
=168	=168	=168	=168
4G	4Bn	4.d	8f]
.	.	.	8a-
4BBn	4r	.	8g
.	.	8f	8g
4C	2r	8en	8g
.	.	8e	8b-
4C#	.	8e	8an
.	.	8g	8a
=169	=169	=169	=169
2D	4r	8f#	8a
.	.	8f#	8cc
.	[4d	8f#	8bn
.	.	8a	8b
4r	8d]	[2g	8b
.	8fn	.	8dd
[4B-	8e	.	8cc#
.	8e	.	8cc#
=170	=170	=170	=170
8B-]	8e	8g]	8cc#
8G	8g	8b-	8ee
8A	8f	8a	8dd
8A	8f	8a	8dd
8A	8f	8a	8dd
8F	8a	8dd	8ff
8G	8g	8b-	8ee
8G	8g	8b-	8ee
=171	=171	=171	=171
8G	4c#	4e	2a
8E	.	.	.
8F	4d	4d	.
8F	.	.	.
8F	[2G	[2b-	4r
8D	.	.	.
8E	.	.	4gg
8E	.	.	.
=172	=172	=172	=172
8E	4G]	4b-]	8cc#
8C#	.	.	8ee
4D	4F	4a	8dd
.	.	.	8dd
4GG	4r	2b-	8dd
.	.	.	8ff
[4G	4d	.	8ee
.	.	.	8ee
=173	=173	=173	=173
4G]	2c#	2a	8ee
.	.	.	8gg
8A	.	.	8ff
8G	.	.	8ee
4F	4r	4r	8aa
.	.	.	8dd
4B-	4d	4g	8gg
.	.	.	8gg
=174	=174	=174	=174
4.A	4c#	4.a	8gg
.	.	.	8ee
.	4d	.	8ff
8G	.	8b-	8dd
4A	4r	8a	8ff
.	.	8f	8dd
4AA	4C#	8g	4ee
.	.	8g	.
=175	=175	=175	=175
4BB-	8D	4f	4dd
.	8E	.	.
4FF	8F	4d	4a
.	8F	.	.
4C	8F	4a	4r
.	8E	.	.
4C#	8G	4g	4b-
.	8G	.	.
=176	=176	=176	=176
4D	8G	4r	8b-
.	8F	.	8a
4AA	8A	4f	8cc
.	8A	.	8cc
2E	8A	4e	8cc
.	8G	.	8bn
.	8B-	4d	[4gg
.	8B-	.	.
=177	=177	=177	=177
4F	8B-	4r	8gg]
.	8A	.	8ff
4E	8B-	[4c#	8gg
.	8G	.	8ee
8D	4.A	4d]	4ff
8E	.	.	.
4D	.	4e	4bb-
.	8G	.	.
=178	=178	=178	=178
4A	8F	4r	8aa
.	8E	.	8cc#
4B-	4D	8f	8dd
.	.	8g	8dd
4.A	[2A	4f	8dd
.	.	.	8bn
.	.	4e	8ccn
8G	.	.	8cc
=179	=179	=179	=179
4F#	4A]	2d	8cc
.	.	.	8a
4Fn	2G	.	8bn
.	.	.	8dd
4E	.	4c#	8g
.	.	.	8b-
[4E-	4A	4cn	8ccn
.	.	.	8g-
=180	=180	=180	=180
8E-]	4B-	8d	4f
8D	.	4b-	.
8F	4F	.	4dd
8F	.	[8a	.
8F	4c	8a]	4aa
8En	.	8cc	.
8G	4c#	8ee	4gg
8G	.	8b-	.
=181	=181	=181	=181
8G	4d	8a	4r
8F	.	8dd	.
8A	4A	8cc#	4ff
8A	.	8ccn	.
8A	2e	8bn	4ee
8G	.	8b-	.
8B-	.	8a	4dd
8B-	.	8g#	.
=182	=182	=182	=182
[2A	4f	8a	4r
.	.	8b-	.
.	4e	8gn	4cc#
.	.	8a	.
4.A]	8d	4f	4dd
.	8e	.	.
.	4d	4b-	4ee
8G#	.	.	.
=183	=183	=183	=183
2.A	4a	4c#	4r
.	4d	8a	8dd 8ff
.	.	8b-	8ee 8gg
.	[2A	4a	4dd 4ff
4AA	.	4g	4cc# 4eeT
=184	=184	=184	=184
1D;	1A;]	1f#;	1dd;
====	====	====	====
*-	*-	*-	*-
